!!!!SEGMENT:pl-kk--kk-i-471--005_renner-josef-missa-tertia-benedictus.krn
!!!id: 18xx:1444
!!!COM: Renner, Josef
!!!OTL: Missa tertia – Benedictus
!!!PDT:
!!!SMS-siglum: PL-Kk
!!!SMS-shelfmark: Kk.I.471
!!!NIFC-rismID: 1001140695
!!!URL-scan: http://repozytorium.nifc.pl/skany/pl-kk-nut--i-471
!!!ONB-nifc: UWAGA: na podstawie partytury. Proszę uzupełnić pola !!!SMS dot. partytury i głosów. Uwaga: części Mszy: 1. Kyrie, 2. Gloria, 3. Credo, 4. Sanctus, 5. Benedictus, 6. Agnus Dei
!!!SMS-variant: Partytura PL-Kk Kk.I.471:8-9
!!!SMS-altvar: Partytura PL-Kk Kk.I.471:19-20; Tenor I PL-Kk Kk.I.471:26-27; Tenor II PL-Kk Kk.I.471:39-40; Bas I PL-Kk Kk.I.471:52-53; Bas II PL-Kk Kk.I.471:66; Tenor I PL-Kk Kk.I.471:33; Tenor II PL-Kk Kk.I.471:46; Bas I PL-Kk Kk.I.471:59; Bas II PL-Kk Kk.I.471:72
**kern	**kern	**kern	**text	**dynam	**kern	**text	**dynam
*part3	*part3	*part2	*part2	*part2	*part1	*part1	*part1
*staff4	*staff3	*staff2	*staff2	*	*staff1	*staff1	*
*I"[Organo]	*I"[Organo]	*I"[Bas I i II]	*	*	*I"[Tenor I i II]	*	*
*I'[org]	*I'[org]	*I'[Coro B 1, 2]	*	*	*I'[Coro T 1, 2]	*	*
*clefF4	*clefG2	*clefF4	*	*	*clefG2	*	*
*k[b-]	*k[b-]	*k[b-]	*	*	*k[b-]	*	*
*M3/2	*M3/2	*M3/2	*	*	*M3/2	*	*
=1	=1	=1	=1	=1	=1	=1	=1
*	*	*^	*	*	*^	*	*
*	*	*	*	*	*	*	*	*^	*
!	!	!	!	!	!	!LO:TX:i:a:B:t=Andante	!	!	!	!
1.ryy	1.ryy	1A	1F	.	.	1.r	1cc	.	Be-	.
!	!	!	!	!	!	!	!LO:TX:a:i:t=solo:rj	!	!	!
.	.	2G/	2F\	.	.	.	2b-\	.	-ne-	.
=2	=2	=2	=2	=2	=2	=2	=2	=2	=2	=2
*	*	*	*	*	*	*	*	*above	*	*
!	!	!	!	!	!	!LO:TX:a:t=P:problem:tekst z adnotacją "above" nad pięciolinią:global	!	!	!	!
1.ryy	1.ryy	2F/	2F\	.	.	1ff	2a\	Be-	-di-	.
.	.	2G/	2F\	.	.	.	2b-\	.	-ctus	.
.	.	2A/	2F\	.	.	2ff/	2cc\	-ne-	qui	.
=3	=3	=3	=3	=3	=3	=3	=3	=3	=3	=3
1.ryy	1.ryy	2G/	1.C	.	.	2ee/	1.cc	-di-	ve-	.
.	.	2F/	.	.	.	2dd/	.	-ctus	.	.
.	.	2E/	.	.	.	2cc/	.	qui	.	.
=4	=4	=4	=4	=4	=4	=4	=4	=4	=4	=4
!	!	!	!	!	!	!LO:TX:a:t=P:problem:kropka przy nucie dopisana długopisem	!	!	!	!
1.ryy	1.ryy	1E	1C	.	.	1.cc	1g	ve-	-nit	.
.	.	2E/	2BB-\	.	.	.	2g\	.	in	.
=5	=5	=5	=5	=5	=5	=5	=5	=5	=5	=5
1.ryy	1.ryy	2F/	2AA\	.	.	1cc	2a\	-nit	no-	.
.	.	2E/	2GG\	.	.	.	2b-\	.	-mi-	.
.	.	2F/	2FF\	.	.	2cc/	2a\	in	-ne,	.
=6	=6	=6	=6	=6	=6	=6	=6	=6	=6	=6
1.ryy	1.ryy	1F	1F	.	.	(>1.cc	(<1a	no-	no-	.
.	.	2G/	2E\	.	.	.	2g\)	.	.	.
!!LO:LB:g=original
=7	=7	=7	=7	=7	=7	=7	=7	=7	=7	=7
1.ryy	1.ryy	1F	1D	.	.	2dd/)	1a	.	-mi-	.
.	.	.	.	.	.	2ee/	.	-mi-	.	.
.	.	2F/	2BB-\	.	.	2ff/	2dd\	-ne	-ne	.
=8	=8	=8	=8	=8	=8	=8	=8	=8	=8	=8
1.ryy	1.ryy	1G	1BB-	.	.	1ff	1dd	Do-	Do-	.
.	.	2G/	2BBn\	.	.	2ff/	2dd\	-mi-	-mi-	.
=9	=9	=9	=9	=9	=9	=9	=9	=9	=9	=9
1.ryy	1.ryy	2G/	1C	.	.	1ee	1cc	-ni	-ne	.
.	.	2c/	.	.	.	.	.	.	.	.
.	.	2B-/	2r	.	.	2r	2ryy	.	.	.
=10	=10	=10	=10	=10	=10	=10	=10	=10	=10	=10
1.ryy	1.ryy	1A	1F	.	.	1.r	1cc	.	Be-	.
.	.	2G/	2F\	.	.	.	2b-\	.	-ne-	.
=11	=11	=11	=11	=11	=11	=11	=11	=11	=11	=11
1.ryy	1.ryy	2F/	2F\	.	.	1ff	2a\	Be-	-dic-	.
.	.	2G/	2F\	.	.	.	2b-\	.	-tus	.
.	.	2A/	2F\	.	.	2ff/	2cc\	-ne-	qui	.
=12	=12	=12	=12	=12	=12	=12	=12	=12	=12	=12
1.ryy	1.ryy	2G/	1.C	.	.	2ee/	(<1.cc	-di-	ve-	.
.	.	2F/	.	.	.	2dd/	.	-ctus	.	.
.	.	2G/	.	.	.	2ee/	.	qui	.	.
=13	=13	=13	=13	=13	=13	=13	=13	=13	=13	=13
1.ryy	1.ryy	1F	1D	.	.	1.ff	1a)	ve-	.	.
.	.	2A/	2ryy	.	.	.	2dd\	.	.	.
!!LO:LB:g=original
=14	=14	=14	=14	=14	=14	=14	=14	=14	=14	=14
1.ryy	1.ryy	1G	1GG	.	.	1.dd	1bn	-nit	-nit	.
.	.	2G\	2ryy	.	.	.	2b\	.	in	.
=15	=15	=15	=15	=15	=15	=15	=15	=15	=15	=15
1.ryy	1.ryy	2G/	2F\	.	.	2r	2bn\	.	no-	.
.	.	2G/	2E\	.	.	2cc/	2cc\	Be-	-mi-	.
!	!	!LO:N:xstem:vis=1	!	!	!	!	!	!	!	!
.	.	2G/	2C\	.	.	2ee/	2cc\	-ne-	-ne	.
=16	=16	=16	=16	=16	=16	=16	=16	=16	=16	=16
1.ryy	1.ryy	1G	2D\	.	.	[>1.gg	(<2bn\	.	Do-	.
.	.	.	2E\	.	.	.	2cc\)	-di-	.	.
.	.	2G/	2F\	.	.	.	2dd\	.	-mi-	.
=17	=17	=17	=17	=17	=17	=17	=17	=17	=17	=17
*	*	*^	*	*	*	*	*	*	*	*
1.ryy	1.ryy	1.r	1G	1E	.	.	2gg/]	1cc	.	-ni	.
.	.	.	.	.	.	.	2ee/	.	-ctus	.	.
.	.	.	2A/	2A\	.	.	(>4cc/	2cc\	qui	qui	.
.	.	.	.	.	.	.	4dd/)	.	.	.	.
*	*	*v	*v	*	*	*	*	*	*	*	*
=18	=18	=18	=18	=18	=18	=18	=18	=18	=18	=18
1.ryy	1.ryy	1ryy	2.A\	.	.	2ee/	2cc\	ve-	ve-	.
.	.	.	.	.	.	2ee/	2cc\	-nit	-nit	.
.	.	.	4G\	.	.	.	.	.	.	.
.	.	2A/	2F\	.	.	2dd/	2cc\	in	in	.
=19	=19	=19	=19	=19	=19	=19	=19	=19	=19	=19
1.ryy	1.ryy	2G/	2E\	.	.	2gg/	2cc\	no-	no-	.
.	.	2G/	2C\	.	.	2ee/	2cc\	-mi-	-mi-	.
.	.	(4G/	2AA\	.	.	(>4cc/	2cc\	-ne	-ne	.
.	.	4F#X/)	.	.	.	4dd/)	.	.	.	.
=20	=20	=20	=20	=20	=20	=20	=20	=20	=20	=20
1.ryy	1.ryy	1G	1GG	.	.	1ee	1cc	Do-	Do-	.
.	.	4G/	2GG\	.	.	2dd/	2bn\	-mi-	-mi-	.
.	.	4Fn/	.	.	.	.	.	.	.	.
=21	=21	=21	=21	=21	=21	=21	=21	=21	=21	=21
*	*^	*	*	*	*	*	*	*	*	*
1.ryy	2ryy	1ryy	1E	1C	.	.	1cc	1g	-ni	-ni	.
.	2r	.	.	.	.	.	.	.	.	.	.
*	*	*	*	*	*above	*	*	*	*	*	*
!	!	!LO:N:xstem:vis=1	!LO:TX:a:t=P:problem:tekst z adnotacją "above" nad pięciolinią:global	!	!	!LO:DY:a:rj	!	!	!	!	!
.	4cc/	2C\ 2G 2e	2c/	2r	Ho-	f	2r	2ryy	.	.	.
.	4dd/	.	.	.	.	.	.	.	.	.	.
*	*	*	*	*	*	*	*	*	*	*below	*
*	*	*	*	*	*	*	*	*	*v	*v	*
*	*	*	*v	*v	*	*	*	*	*	*
*	*	*	*	*	*	*v	*v	*	*
!!LO:PB:g=original
=22||	=22||	=22||	=22||	=22||	=22||	=22||	=22||	=22||
*M3/2	*M3/2	*	*M3/2	*	*	*M3/2	*	*
*k[b-]	*k[b-]	*	*k[b-]	*	*	*k[b-]	*	*
*^	*	*	*^	*	*	*^	*	*
!	!	!	!	!	!	!	!	!LO:TX:a:i:t=Piu mosso	!	!	!
1G	1.C	4ee/	1e	2c/	1rFyy	-san-	.	2ryy	1ryy	.	.
.	.	4dd/	.	.	.	.	.	.	.	.	.
.	.	4cc/	.	2C/	.	-na	.	2ryy	.	.	.
.	.	4dd/	.	.	.	.	.	.	.	.	.
!	!	!	!	!	!	!	!	!LO:TX:i:a:t=Tutti	!	!	!
[>2c/	.	4ee/	2g\	2G/	2C\	.	.	2ee/	2cc\	Ho-	.
.	.	4cc/	.	.	.	.	.	.	.	.	.
=23	=23	=23	=23	=23	=23	=23	=23	=23	=23	=23	=23
1c]	2F\	4a/	2f\	2A/	2F\	.	.	2ff/	2cc\	-san-	.
.	.	4bn/	.	.	.	.	.	.	.	.	.
.	2E\	4cc/	2g\	2G/	2C\	.	.	2ee/	2cc\	-na,	.
.	.	4b/	.	.	.	.	.	.	.	.	.
2G/	2C\	4cc/	2e\	2c/	2r	Ho-	.	2r	2ryy	.	.
.	.	4dd/	.	.	.	.	.	.	.	.	.
=24	=24	=24	=24	=24	=24	=24	=24	=24	=24	=24	=24
1G	1.C	4ee/	1e	2c/	1r	-san-	.	1r	2ryy	.	.
.	.	4dd/	.	.	.	.	.	.	.	.	.
.	.	4cc/	.	2C/	.	-na,	.	.	2ryy	.	.
.	.	4dd/	.	.	.	.	.	.	.	.	.
[>2c/	.	4ee/	2g\	2G/	2C\	.	.	2ee/	2cc\	Ho-	.
.	.	4cc/	.	.	.	.	.	.	.	.	.
=25	=25	=25	=25	=25	=25	=25	=25	=25	=25	=25	=25
1c]	2F\	4a/	2f\	2A/	2F\	.	.	2ff/	2cc\	-san-	.
.	.	4bn/	.	.	.	.	.	.	.	.	.
.	2E\	4cc/	2g\	2G/	2C\	.	.	2ee/	2cc\	-na,	.
.	.	4b/	.	.	.	.	.	.	.	.	.
2G/	2C\	4cc/	2e\	2c/	2c\	.	.	2cc/	2cc\	Ho-	.
.	.	4dd/	.	.	.	.	.	.	.	.	.
*v	*v	*	*	*v	*v	*	*	*v	*v	*	*
*	*v	*v	*	*	*	*	*	*
=26||	=26||	=26||	=26||	=26||	=26||	=26||	=26||
*M4/4	*M4/4	*M4/4	*	*	*M4/4	*	*
*met(c|)	*met(c|)	*met(c|)	*	*	*met(c|)	*	*
*^	*^	*^	*	*	*^	*	*
!	!	!	!	!	!	!	!	!LO:TX:a:i:t=Piu meno	!	!	!
[>1c	4C\	2ee/	2g\	2c/	2c\	.	.	2cc/	2cc\	-san-	.
.	4BBn\	.	.	.	.	.	.	.	.	.	.
.	4AA\	2cc/	2e\	2c/	2c\	.	.	2cc/	2cc\	-na	.
.	4GG#X\	.	.	.	.	.	.	.	.	.	.
=27	=27	=27	=27	=27	=27	=27	=27	=27	=27	=27	=27
1c]	4AA\	2cc/	1f	2A/	2A\	.	.	2ff/	2cc\	in	.
.	4GGn\	.	.	.	.	.	.	.	.	.	.
.	4FF\	2a/	.	2A/	2F\	.	.	2ff/	2cc\	ex-	.
.	4AA\	.	.	.	.	.	.	.	.	.	.
!!LO:LB:g=original
=28	=28	=28	=28	=28	=28	=28	=28	=28	=28	=28	=28
1G	4BB-X\	2g/	1d	1B-	1BB-	.	.	1gg	1dd	-cel-	.
.	4AA\	.	.	.	.	.	.	.	.	.	.
.	4GG\	[>2b-X/	.	.	.	.	.	.	.	.	.
.	4BB-\	.	.	.	.	.	.	.	.	.	.
=29	=29	=29	=29	=29	=29	=29	=29	=29	=29	=29	=29
1B-	2D\	4b-/]	2f\	2F/	1BB-	.	.	1dd	1dd	-sis	.
.	.	4a/	.	.	.	.	.	.	.	.	.
.	2BB-\	4g/	2d\	2G/	.	.	.	.	.	.	.
.	.	4d/	.	.	.	.	.	.	.	.	.
=30	=30	=30	=30	=30	=30	=30	=30	=30	=30	=30	=30
2A/	1C	2f/	2c\	2A/	2C\	.	.	2ff/	2cc\	in	.
[>2c/	.	4g/	2f\	2F/	2C\	.	.	2cc/	2a\	ex-	.
.	.	4a/	.	.	.	.	.	.	.	.	.
=31	=31	=31	=31	=31	=31	=31	=31	=31	=31	=31	=31
1c]	1C	4b-/	2e\	1G	1C	.	.	1ee	1cc	-cel-	.
.	.	4cc/	.	.	.	.	.	.	.	.	.
.	.	4dd/	2b-\	.	.	.	.	.	.	.	.
.	.	4ee/	.	.	.	.	.	.	.	.	.
=32	=32	=32	=32	=32	=32	=32	=32	=32	=32	=32	=32
1c;>	1FF;<	1ff;>	1a	1A;>	1FF;< 1F	.	.	1ff;>	1cc	-sis.	.
*v	*v	*	*	*v	*v	*	*	*v	*v	*	*
*	*v	*v	*	*	*	*	*	*
==	==	==	==	==	==	==	==
*-	*-	*-	*-	*-	*-	*-	*-
!!!system-decoration: [s1,s2,{s3,s4}]
!!!RDF**kern: > = above
!!!RDF**kern: < = below
!!!ENC: Tomasz Grochalski
!!!END: 2021-01-22
!!!EED: Mateusz Mrugas
!!!EST: 2021-01-27
